X: 1737
T: JACK'S THE LAD
M:C|
L:1/8
B:O'NEILL'S 1737
Z:Transcribed by A.LEE WORMAN
K:D
(3A-B-c|d2 D2 D2 (AG)|FAdc defd|e2 E2 E2 (ed)|cea^g a2 f2|
gfga bagf|gfec dcBA|Bdce dfeg|f2 d2 d2:|
|:(AG)|FAdA FAdA|B2 G2 G2 (GF)|GBeB GBed|c2 A2 A2 (ef)|
gfga bagf|gfec dcBA|Bdce dfeg|f2 d2 d2:|


